X: 24186
T: Lord Gordon's
R: reel
M: 4/4
K: Dmajor
AD D2 AD D2|ADED A2 fd|Be e2 Bede|Be e2 ABBc|
d2 df efdB|AdFd ABde|fdef dBAd|1 BEEB GBdB:|2 BEEB ABde||
f2 de fade|fade faaf|gbef gbef|gbeg b2 ba|
faef dddB|AdFd ABde|fdef dBAd|BEEB ABde|
f2 de fade|fade faaf|gbef gbef|gbeg b2 ba|
bbbg aaae|f/g/a ef d2 de|fdef dBAd|BEEB GBdB||

